!!!COM: Robert Franz
!!!CNT: Deutscher
!!!TXO: Deutsche 
!!!OTL: "Die schlanke Wasserlilie"
!!!OPS: Op. 51
!!!ONM: No. 7
!!!ONB: Original key: Db Major
!!!LYR: H. Heine
!!!ENC: Brian Bice
!!!YOR: Vocal Album, G. Schirmer, Inc., 1907
!!!ODT: 1879/
!!NB: Vocal melody and text only encoded.
**kern	**silbe
*clefG2	*
*k[b-e-]	*
*M2/4	*
=0	=0
4.r	.
{8f	{Die
=1	=1
(4cc	sclan-
8a)	|
8f	-ke
=2	=2
(4b-	Was-
8f)	|
8d	-ser-
=3	=3
(4.f	-li-
8e-)	|
=4	=4
4d}	-lie}
8r	.
{8c	{schaut
=5	=5
4b-	tra2u-
8d	-mend
8g	em-
=6	=6
4f#	-por
8g	aus
8g	dem
=7	=7
4.a}	See,}
8r	.
=8	=8
4r	.
8r	.
{8d	{da
=9	=9
(4dd	gru2sst
8bn)	|
8g	der
=10	=10
(4cc	Mond
8g)	|
8e-	her-
=11	=11
(4.g	-un-
8f)	|
=12	=12
4e-}	-ter}
8r	.
{8g	{mit
=13	=13
(4cc	lich-
8b-)	|
8a-	-tem
=14	=14
(4b-	Lie-
8f)	|
8f	-bes-
=15	=15
4.g}	-weh.}
8r	.
=16	=16
4r	.
8r	.
{8c	{Ver-
=17	=17
4.c	-scha2mt
8f	senkt
=18	=18
4.a-	sie
8g-	das
=19	=19
4f	Ko2pf-
8a-}	-chen}
8r	.
=20	=20
{4cc	{wie-
8b-	-der
8a-	hin-
=21	=21
4g	-ab
(8f	zu
16en)	|
16f	den
=22	=22
4.g}	Well'n,}
8r	.
=23	=23
4r	.
8r	.
{8c	{da
=24	=24
4c	sieht
8an	sie
8f	zu
=25	=25
(4b-	ih-
8f)	|
8d-	-ren
=26	=26
(4.d	Fu2-
8e-)	|
=27	=27
4d-}	-ssen}
8r	.
{8f	{den
=28	=28
(4b-	ar-
8a-)	|
8g-	-men
=29	=29
4f	blas-
8e-	-sen
8e-	Ge-
=30	=30
4.f}	-sell'n.}
8r	.
*-	*-
